public/svg/wallet_as_service/webhook.svg

<svg width="16" height="19" viewBox="0 0 16 19" fill="none" xmlns="http://www.w3.org/2000/svg">
<path d="M14.0833 9.5V4.75C14.0833 3.34987 14.0833 2.6498 13.8109 2.11502C13.5712 1.64462 13.1887 1.26217 12.7183 1.02248C12.1835 0.75 11.4835 0.75 10.0833 0.75H4.75C3.34987 0.75 2.6498 0.75 2.11502 1.02248C1.64462 1.26217 1.26217 1.64462 1.02248 2.11502C0.75 2.6498 0.75 3.34987 0.75 4.75V13.4167C0.75 14.8168 0.75 15.5169 1.02248 16.0516C1.26217 16.522 1.64462 16.9045 2.11502 17.1442C2.6498 17.4167 3.34987 17.4167 4.75 17.4167H7.41667M9.08333 8.25H4.08333M5.75 11.5833H4.08333M10.75 4.91667H4.08333M9.5 14.9167L11.1667 16.5833L14.9167 12.8333" stroke="#414651" stroke-width="1.5" stroke-linecap="round" stroke-linejoin="round"/>
</svg>

<svg xmlns="http://www.w3.org/2000/svg" width="16" height="19" fill="none" viewBox="0 0 16 19"><path stroke="#414651" stroke-linecap="round" stroke-linejoin="round" stroke-width="1.5" d="M14.083 9.5V4.75c0-1.4 0-2.1-.272-2.635a2.5 2.5 0 0 0-1.093-1.093C12.184.75 11.483.75 10.083.75H4.75c-1.4 0-2.1 0-2.635.272a2.5 2.5 0 0 0-1.093 1.093C.75 2.65.75 3.35.75 4.75v8.667c0 1.4 0 2.1.272 2.635a2.5 2.5 0 0 0 1.093 1.092c.535.273 1.235.273 2.635.273h2.667M9.083 8.25h-5m1.667 3.333H4.083m6.667-6.666H4.083m5.417 10 1.667 1.666 3.75-3.75"/></svg>
